!!!SOCIAL_FUNCTION:	miscellaneous songs
!!!PDT:	1943
!!!OTL: No_98_Indian_Cowboy_Song.krn
!!!REG: British Columbia
**kern
*staff1
=1-
*clefF4
*k[f#]
*M2/4
4e\
8e\L
8e\J
=2!|:
8f#\L
8e\J
8e\L
8e\J
=3
8f#\L
8e\J
8e\L
8d\J
=4
8d\L
8B\J
8B\
16r
16B\
=5
8e\L
8e\J
8.e\L
16d\Jk
=6
8d\L
8B\J
8.B\L
16B\Jk
=7
8B\L
8A\J
8A\L
8G\J
=8
8G\L
8E\J
8E\L
8E\J
=9
4E\
4r
=10
4.B\
8A\
=11
8A\L
8G\J
8G\L
8A\J
=12
8B\L
8B\J
8B\L
8A\J
=13
8A\L
8G\J
8G\L
8G\J
=14
8A\L
8G\J
8G\L
8E\J
=15||
*M3/4
8E\L
8E\J
8E\L
8E\J
8E\
8r
=16
*M2/4
8e\L
8e\J
8.e\L
16e\Jk
==:|!
*-
